img/Item-5.svg

<svg width="190" height="32" viewBox="0 0 190 32" fill="none" xmlns="http://www.w3.org/2000/svg">
<path d="M62.0448 6.73251V18.0139C62.0448 21.7744 60.4209 23.3372 56.6 23.3372C52.7791 23.3372 51.1552 21.7744 51.1552 18.0139V6.24414H47.4776C47.1433 6.24414 47 6.39065 47 6.73251V18.1604C47 24.4604 50.9164 26.6581 56.6 26.6581C62.2836 26.6581 66.2 24.4604 66.2 18.1604V6.24414H62.5224C62.2358 6.24414 62.0448 6.39065 62.0448 6.73251Z" fill="white"/>
<path d="M115.394 9.51623C115.681 9.51623 115.824 9.41856 115.919 9.17437L116.97 6.48833C117.018 6.34182 116.97 6.24414 116.827 6.24414H102.021C100.636 6.24414 100.11 6.68368 100.11 7.66042V25.1441C100.11 25.9744 100.493 26.3162 101.591 26.3162H115.394C115.681 26.3162 115.824 26.2186 115.919 25.9744L116.97 23.2883C117.018 23.1418 116.97 23.0441 116.827 23.0441H104.17V19.479C104.17 18.2581 104.839 17.672 106.606 17.672H112.099C112.385 17.672 112.528 17.5744 112.624 17.3302L113.627 14.7418C113.675 14.5953 113.627 14.4976 113.484 14.4976H104.122V9.51623H115.394Z" fill="white"/>
<path fill-rule="evenodd" clip-rule="evenodd" d="M91.609 11.3232C91.609 13.2279 90.9403 14.8395 89.3164 15.7186C91.5134 16.3534 92.5164 18.3558 92.4687 20.7488C92.4687 24.7534 89.6985 26.3162 85.8299 26.3162H75.5612C74.4627 26.3162 74.0806 25.9744 74.0806 25.1441V7.66042C74.0806 6.68368 74.606 6.24414 75.991 6.24414H84.397C88.0746 6.24414 91.609 6.87902 91.609 11.3232ZM78.1881 9.4674H84.6836C86.8328 9.4674 87.4537 10.2976 87.4537 12.0558C87.4537 13.7651 86.8328 14.6441 84.6836 14.6441H78.1881V9.4674ZM85.4478 23.093H78.1881V19.4302C78.1881 18.2093 78.8567 17.6232 80.6239 17.6232H85.4478C87.7403 17.6232 88.409 18.5511 88.409 20.3581C88.409 22.2139 87.7403 23.093 85.4478 23.093Z" fill="white"/>
<path fill-rule="evenodd" clip-rule="evenodd" d="M138.272 18.2581L142.666 25.9744C142.761 26.072 142.761 26.3162 142.427 26.3162H138.701C138.426 26.3162 138.327 26.1809 138.193 25.9969C138.187 25.9895 138.182 25.982 138.176 25.9744L134.212 18.6488H130.582C128.815 18.6488 128.146 19.2348 128.146 20.4558V26.3162H124.564C124.23 26.3162 124.087 26.1697 124.087 25.8279V7.66042C124.087 6.68368 124.612 6.24414 125.997 6.24414H134.403C139.275 6.24414 142.236 7.56275 142.236 12.4465C142.236 16.2069 140.469 17.672 138.272 18.2581ZM128.146 15.572H134.976C137.555 15.572 138.081 14.5465 138.081 12.4953C138.081 10.493 137.507 9.4674 134.976 9.4674H128.146V15.572Z" fill="white"/>
</svg>

<svg width="190" height="32" fill="none" xmlns="http://www.w3.org/2000/svg"><path d="M62.045 6.733v11.28c0 3.761-1.624 5.324-5.445 5.324-3.82 0-5.445-1.563-5.445-5.323V6.244h-3.677c-.335 0-.478.147-.478.489V18.16c0 6.3 3.916 8.498 9.6 8.498 5.684 0 9.6-2.198 9.6-8.498V6.244h-3.678c-.286 0-.477.147-.477.489zM115.394 9.516c.287 0 .43-.097.525-.342l1.051-2.686c.048-.146 0-.244-.143-.244h-14.806c-1.385 0-1.911.44-1.911 1.416v17.484c0 .83.383 1.172 1.481 1.172h13.803c.287 0 .43-.097.525-.342l1.051-2.686c.048-.146 0-.244-.143-.244H104.17V19.48c0-1.22.669-1.807 2.436-1.807h5.493c.286 0 .429-.098.525-.342l1.003-2.588c.048-.147 0-.244-.143-.244h-9.362V9.516h11.272z" fill="#fff"/><path fill-rule="evenodd" clip-rule="evenodd" d="M91.609 11.323c0 1.905-.669 3.516-2.293 4.396 2.197.634 3.2 2.637 3.153 5.03 0 4.004-2.77 5.567-6.64 5.567H75.562c-1.098 0-1.48-.342-1.48-1.172V7.66c0-.976.525-1.416 1.91-1.416h8.406c3.678 0 7.212.635 7.212 5.08zm-13.42-1.856h6.495c2.149 0 2.77.83 2.77 2.589 0 1.71-.621 2.588-2.77 2.588h-6.496V9.467zm7.259 13.626h-7.26V19.43c0-1.22.669-1.807 2.436-1.807h4.824c2.292 0 2.961.928 2.961 2.735 0 1.856-.669 2.735-2.961 2.735zM138.272 18.258l4.394 7.716c.095.098.095.342-.239.342h-3.726c-.275 0-.374-.135-.508-.32-.006-.006-.011-.014-.017-.022l-3.964-7.325h-3.63c-1.767 0-2.436.586-2.436 1.807v5.86h-3.582c-.334 0-.477-.146-.477-.488V7.66c0-.976.525-1.416 1.91-1.416h8.406c4.872 0 7.833 1.319 7.833 6.203 0 3.76-1.767 5.225-3.964 5.811zm-10.126-2.686h6.83c2.579 0 3.105-1.025 3.105-3.077 0-2.002-.574-3.028-3.105-3.028h-6.83v6.105z" fill="#fff"/></svg>
